public/imgs/Enterprises/InfinixVR/logo-vr.svg

<svg width="304" height="42" viewBox="0 0 304 42" fill="none" xmlns="http://www.w3.org/2000/svg">
<g clip-path="url(#clip0_1009_21994)">
<path d="M34.0964 8.25977C30.4424 8.25977 27.1469 9.8374 24.8407 12.3529L28.9685 18.6418C29.8571 16.6765 31.821 15.3076 34.0964 15.3076C37.2053 15.3076 39.7343 17.8611 39.7343 21.0001C39.7343 24.1391 37.2053 26.6926 34.0964 26.6926C31.9942 26.6926 30.2558 25.466 29.19 23.7989C23.7601 15.3076 24.5789 16.5017 22.8217 13.7313C22.3949 13.0577 21.8821 12.3597 21.7532 12.2228C19.4537 9.78319 16.2092 8.25977 12.6183 8.25977C5.6608 8.25977 0 13.9753 0 21.0001C0 28.025 5.6608 33.7405 12.6183 33.7405C16.2911 33.7405 19.6014 32.148 21.9089 29.6107L17.8093 23.2216C16.9502 25.26 14.9474 26.6926 12.6183 26.6926C9.50939 26.6926 6.98036 24.1391 6.98036 21.0001C6.98036 17.8611 9.50939 15.3076 12.6183 15.3076C14.6923 15.3076 16.4508 16.48 17.4871 18.1349C21.7465 24.9307 22.1425 25.4579 23.9856 28.3475C24.4608 29.0916 25.2286 30.0607 25.4796 30.2979C27.7362 32.4312 30.7673 33.7405 34.0964 33.7405C41.0539 33.7405 46.7147 28.025 46.7147 21.0001C46.7147 13.9753 41.0539 8.25977 34.0964 8.25977Z" fill="#89C8F4"/>
</g>
<path d="M57.1171 35V10.1411H61.6551V35H57.1171ZM66.0695 35V16.848H70.1737V20.4183L69.84 19.7844C70.2627 18.6944 70.9523 17.8713 71.9088 17.3152C72.8876 16.7368 74.0221 16.4476 75.3123 16.4476C76.647 16.4476 77.826 16.7368 78.8493 17.3152C79.8948 17.8935 80.7068 18.7055 81.2851 19.751C81.8635 20.7743 82.1527 21.9644 82.1527 23.3213V35H77.7815V24.3557C77.7815 23.5549 77.6258 22.8653 77.3144 22.2869C77.003 21.7086 76.5692 21.2637 76.0131 20.9522C75.4792 20.6186 74.8452 20.4517 74.1111 20.4517C73.3993 20.4517 72.7653 20.6186 72.2091 20.9522C71.653 21.2637 71.2192 21.7086 70.9078 22.2869C70.5964 22.8653 70.4407 23.5549 70.4407 24.3557V35H66.0695ZM87.9511 35V20.752H84.7478V16.848H87.9511V16.2474C87.9511 14.8682 88.2292 13.7003 88.7853 12.7438C89.3637 11.765 90.1645 11.0198 91.1878 10.5082C92.211 9.99652 93.4234 9.7407 94.8248 9.7407C95.0918 9.7407 95.381 9.76295 95.6924 9.80744C96.0261 9.82968 96.3041 9.86305 96.5266 9.90754V13.6781C96.3041 13.6336 96.0928 13.6113 95.8926 13.6113C95.7146 13.5891 95.5478 13.578 95.3921 13.578C94.4133 13.578 93.657 13.8004 93.1231 14.2453C92.5892 14.668 92.3223 15.3353 92.3223 16.2474V16.848H100.264V20.752H92.3223V35H87.9511ZM98.6287 35V16.848H103.033V35H98.6287ZM106.671 35V16.848H110.775V20.4183L110.442 19.7844C110.864 18.6944 111.554 17.8713 112.51 17.3152C113.489 16.7368 114.624 16.4476 115.914 16.4476C117.249 16.4476 118.428 16.7368 119.451 17.3152C120.496 17.8935 121.308 18.7055 121.887 19.751C122.465 20.7743 122.754 21.9644 122.754 23.3213V35H118.383V24.3557C118.383 23.5549 118.227 22.8653 117.916 22.2869C117.605 21.7086 117.171 21.2637 116.615 20.9522C116.081 20.6186 115.447 20.4517 114.713 20.4517C114.001 20.4517 113.367 20.6186 112.811 20.9522C112.255 21.2637 111.821 21.7086 111.509 22.2869C111.198 22.8653 111.042 23.5549 111.042 24.3557V35H106.671ZM126.451 35V16.848H130.822V35H126.451ZM126.451 14.8126V10.1411H130.822V14.8126H126.451ZM133.223 35L139.562 25.8906L133.189 16.848H138.328L143.3 24.1889H140.997L145.969 16.848H151.074L144.734 25.8906L151.041 35H145.936L141.031 27.6925H143.266L138.361 35H133.223Z" fill="black"/>
<path d="M159.715 8.25977L159.715 33.7405" stroke="black"/>
<path d="M171.112 18L167.848 8.9604H169.122L171.889 16.908H171.634L174.4 8.9604H175.674L172.422 18H171.112ZM176.815 18V8.9604H180.006C180.605 8.9604 181.13 9.07365 181.583 9.30015C182.036 9.52664 182.388 9.85021 182.639 10.2708C182.898 10.6915 183.027 11.1849 183.027 11.7512C183.027 12.3902 182.865 12.9322 182.542 13.3771C182.218 13.822 181.781 14.1415 181.231 14.3356L183.331 18H181.947L179.739 14.0808L180.528 14.5419H178.004V18H176.815ZM178.004 13.4499H180.042C180.398 13.4499 180.71 13.3811 180.977 13.2436C181.244 13.1061 181.45 12.9079 181.595 12.649C181.749 12.3902 181.826 12.0909 181.826 11.7512C181.826 11.4033 181.749 11.104 181.595 10.8533C181.45 10.5944 181.244 10.3962 180.977 10.2587C180.71 10.1212 180.398 10.0524 180.042 10.0524H178.004V13.4499ZM185.858 19.456L189.935 9.45789H191.209L187.132 19.456H185.858ZM193.526 18L196.765 8.9604H198.173L201.412 18H200.138L199.398 15.8766H195.54L194.8 18H193.526ZM195.916 14.7846H199.022L197.299 9.8219H197.639L195.916 14.7846ZM202.551 18V8.9604H205.743C206.341 8.9604 206.867 9.07365 207.32 9.30015C207.773 9.52664 208.125 9.85021 208.376 10.2708C208.634 10.6915 208.764 11.1849 208.764 11.7512C208.764 12.3902 208.602 12.9322 208.279 13.3771C207.955 13.822 207.518 14.1415 206.968 14.3356L209.067 18H207.684L205.476 14.0808L206.264 14.5419H203.741V18H202.551ZM203.741 13.4499H205.779C206.135 13.4499 206.446 13.3811 206.713 13.2436C206.98 13.1061 207.187 12.9079 207.332 12.649C207.486 12.3902 207.563 12.0909 207.563 11.7512C207.563 11.4033 207.486 11.104 207.332 10.8533C207.187 10.5944 206.98 10.3962 206.713 10.2587C206.446 10.1212 206.135 10.0524 205.779 10.0524H203.741V13.4499ZM214.614 18V8.9604H217.575C218.489 8.9604 219.286 9.14645 219.965 9.51855C220.644 9.89065 221.17 10.4164 221.542 11.0959C221.914 11.7673 222.101 12.5601 222.101 13.4741C222.101 14.3801 221.914 15.1729 221.542 15.8523C221.17 16.5318 220.644 17.0617 219.965 17.4419C219.286 17.814 218.489 18 217.575 18H214.614ZM215.803 16.908H217.587C218.258 16.908 218.837 16.7664 219.322 16.4833C219.815 16.2002 220.196 15.8038 220.462 15.2942C220.729 14.7765 220.863 14.1698 220.863 13.4741C220.863 12.7704 220.725 12.1637 220.45 11.6541C220.183 11.1445 219.803 10.7521 219.31 10.4771C218.824 10.194 218.25 10.0524 217.587 10.0524H215.803V16.908ZM223.608 18V8.9604H229.492V10.0524H224.797V12.916H229.25V14.008H224.797V16.908H229.492V18H223.608ZM233.356 18L230.092 8.9604H231.366L234.133 16.908H233.878L236.645 8.9604H237.919L234.667 18H233.356ZM239.059 18V8.9604H244.944V10.0524H240.248V12.916H244.701V14.008H240.248V16.908H244.944V18H239.059ZM246.418 18V8.9604H247.607V16.908H251.574V18H246.418ZM256.994 18.1456C256.355 18.1456 255.756 18.0324 255.198 17.8059C254.64 17.5713 254.15 17.2437 253.73 16.823C253.317 16.4024 252.994 15.909 252.759 15.3427C252.524 14.7684 252.407 14.1455 252.407 13.4741C252.407 12.7946 252.524 12.1718 252.759 11.6055C252.994 11.0393 253.317 10.5459 253.73 10.1252C254.15 9.7046 254.636 9.38104 255.186 9.15454C255.744 8.92805 256.346 8.8148 256.994 8.8148C257.641 8.8148 258.239 8.93209 258.789 9.16668C259.348 9.39317 259.833 9.71674 260.245 10.1374C260.666 10.5499 260.994 11.0393 261.228 11.6055C261.471 12.1718 261.592 12.7946 261.592 13.4741C261.592 14.1455 261.471 14.7684 261.228 15.3427C260.994 15.909 260.666 16.4024 260.245 16.823C259.833 17.2437 259.348 17.5713 258.789 17.8059C258.239 18.0324 257.641 18.1456 256.994 18.1456ZM256.994 17.0414C257.495 17.0414 257.952 16.9525 258.365 16.7745C258.777 16.5884 259.133 16.3336 259.432 16.0101C259.74 15.6784 259.974 15.2982 260.136 14.8695C260.306 14.4327 260.391 13.9676 260.391 13.4741C260.391 12.9807 260.306 12.5196 260.136 12.0909C259.974 11.6622 259.74 11.286 259.432 10.9625C259.133 10.6308 258.777 10.376 258.365 10.198C257.952 10.012 257.495 9.91897 256.994 9.91897C256.5 9.91897 256.047 10.012 255.635 10.198C255.222 10.376 254.862 10.6308 254.555 10.9625C254.255 11.286 254.021 11.6622 253.851 12.0909C253.681 12.5196 253.596 12.9807 253.596 13.4741C253.596 13.9676 253.681 14.4327 253.851 14.8695C254.021 15.2982 254.255 15.6784 254.555 16.0101C254.862 16.3336 255.222 16.5884 255.635 16.7745C256.047 16.9525 256.5 17.0414 256.994 17.0414ZM263.327 18V8.9604H266.518C267.116 8.9604 267.642 9.07365 268.095 9.30015C268.548 9.52664 268.9 9.85021 269.151 10.2708C269.41 10.6915 269.539 11.1849 269.539 11.7512C269.539 12.3174 269.41 12.8108 269.151 13.2315C268.9 13.644 268.548 13.9676 268.095 14.2022C267.65 14.4287 267.124 14.5419 266.518 14.5419H264.516V18H263.327ZM264.516 13.4499H266.554C266.918 13.4499 267.234 13.3811 267.501 13.2436C267.767 13.1061 267.974 12.9079 268.119 12.649C268.265 12.3902 268.338 12.0909 268.338 11.7512C268.338 11.4033 268.265 11.104 268.119 10.8533C267.974 10.5944 267.767 10.3962 267.501 10.2587C267.234 10.1212 266.918 10.0524 266.554 10.0524H264.516V13.4499ZM271.147 18V8.9604H272.239L275.624 13.7775H275.066L278.427 8.9604H279.519V18H278.318V10.465L278.743 10.5985L275.382 15.3306H275.285L271.96 10.5985L272.336 10.465V18H271.147ZM281.527 18V8.9604H287.412V10.0524H282.716V12.916H287.169V14.008H282.716V16.908H287.412V18H281.527ZM288.885 18V8.9604H289.88L295.074 16.2649L294.625 16.3134V8.9604H295.826V18H294.831L289.662 10.647L290.075 10.5985V18H288.885ZM299.421 18V10.0524H296.97V8.9604H303.037V10.0524H300.622V18H299.421Z" fill="black"/>
<defs>
<clipPath id="clip0_1009_21994">
<rect width="46.7147" height="25.4807" fill="white" transform="translate(0 8.25977)"/>
</clipPath>
</defs>
</svg>

<svg xmlns="http://www.w3.org/2000/svg" width="304" height="42" fill="none"><g clip-path="url(#a)"><path fill="#89C8F4" d="M34.096 8.26c-3.654 0-6.95 1.577-9.255 4.093l4.127 6.289c.89-1.965 2.853-3.334 5.128-3.334 3.11 0 5.638 2.553 5.638 5.692 0 3.14-2.529 5.693-5.638 5.693-2.102 0-3.84-1.227-4.906-2.894-5.43-8.491-4.611-7.297-6.368-10.068-.427-.673-.94-1.371-1.069-1.508-2.3-2.44-5.544-3.963-9.135-3.963C5.661 8.26 0 13.975 0 21s5.66 12.74 12.618 12.74c3.673 0 6.983-1.592 9.29-4.13l-4.099-6.388c-.859 2.038-2.862 3.47-5.19 3.47-3.11 0-5.639-2.553-5.639-5.692 0-3.139 2.53-5.692 5.638-5.692 2.074 0 3.833 1.172 4.87 2.827 4.259 6.796 4.654 7.323 6.498 10.212.475.745 1.243 1.714 1.494 1.95a12.507 12.507 0 0 0 8.616 3.443c6.958 0 12.619-5.715 12.619-12.74S41.054 8.26 34.096 8.26Z"/></g><path fill="#000" d="M57.117 35V10.141h4.538V35h-4.538Zm8.953 0V16.848h4.104v3.57l-.334-.634c.423-1.09 1.112-1.913 2.069-2.469.979-.578 2.113-.867 3.403-.867 1.335 0 2.514.289 3.537.867a6.11 6.11 0 0 1 2.436 2.436c.579 1.023.868 2.213.868 3.57V35H77.78V24.356c0-.801-.155-1.49-.467-2.07a3.272 3.272 0 0 0-1.3-1.334c-.535-.333-1.169-.5-1.903-.5-.712 0-1.346.167-1.902.5-.556.312-.99.757-1.301 1.335-.312.578-.467 1.268-.467 2.069V35H66.07Zm21.881 0V20.752h-3.203v-3.904h3.203v-.6c0-1.38.278-2.548.834-3.504a5.686 5.686 0 0 1 2.403-2.236c1.023-.511 2.235-.767 3.637-.767.267 0 .556.022.867.066.334.023.612.056.835.1v3.771a3.236 3.236 0 0 0-.634-.067 4.056 4.056 0 0 0-.5-.033c-.98 0-1.736.222-2.27.667-.534.423-.8 1.09-.8 2.002v.601h7.941v3.904h-7.942V35h-4.37Zm10.678 0V16.848h4.404V35h-4.404Zm8.042 0V16.848h4.104v3.57l-.333-.634c.422-1.09 1.112-1.913 2.068-2.469.979-.578 2.114-.867 3.404-.867 1.335 0 2.514.289 3.537.867a6.118 6.118 0 0 1 2.436 2.436c.578 1.023.867 2.213.867 3.57V35h-4.371V24.356c0-.801-.156-1.49-.467-2.07a3.27 3.27 0 0 0-1.301-1.334c-.534-.333-1.168-.5-1.902-.5-.712 0-1.346.167-1.902.5-.556.312-.99.757-1.302 1.335-.311.578-.467 1.268-.467 2.069V35h-4.371Zm19.78 0V16.848h4.371V35h-4.371Zm0-20.187V10.14h4.371v4.672h-4.371ZM133.223 35l6.339-9.11-6.373-9.042h5.139l4.972 7.34h-2.303l4.972-7.34h5.105l-6.34 9.043L151.041 35h-5.105l-4.905-7.308h2.235L138.361 35h-5.138Z"/><path stroke="#000" d="M159.715 8.26v25.48"/><path fill="#000" d="m171.112 18-3.264-9.04h1.274l2.767 7.948h-.255L174.4 8.96h1.274L172.422 18h-1.31Zm5.703 0V8.96h3.191c.599 0 1.124.114 1.577.34.453.227.805.55 1.056.97.259.421.388.915.388 1.481 0 .64-.162 1.181-.485 1.626a2.68 2.68 0 0 1-1.311.959l2.1 3.664h-1.384l-2.208-3.92.789.462h-2.524V18h-1.189Zm1.189-4.55h2.038c.356 0 .668-.069.935-.206.267-.138.473-.336.618-.595.154-.259.231-.558.231-.898 0-.348-.077-.647-.231-.898a1.457 1.457 0 0 0-.618-.594 2.016 2.016 0 0 0-.935-.207h-2.038v3.398Zm7.854 6.006 4.077-9.998h1.274l-4.077 9.998h-1.274ZM193.526 18l3.239-9.04h1.408l3.239 9.04h-1.274l-.74-2.123h-3.858L194.8 18h-1.274Zm2.39-3.215h3.106l-1.723-4.963h.34l-1.723 4.963ZM202.551 18V8.96h3.192c.598 0 1.124.114 1.577.34.453.227.805.55 1.056.97.258.421.388.915.388 1.481 0 .64-.162 1.181-.485 1.626a2.68 2.68 0 0 1-1.311.959L209.067 18h-1.383l-2.208-3.92.788.462h-2.523V18h-1.19Zm1.19-4.55h2.038c.356 0 .667-.069.934-.206a1.46 1.46 0 0 0 .619-.595c.154-.259.231-.558.231-.898 0-.348-.077-.647-.231-.898a1.46 1.46 0 0 0-.619-.594 2.012 2.012 0 0 0-.934-.207h-2.038v3.398ZM214.614 18V8.96h2.961c.914 0 1.711.186 2.39.559a3.899 3.899 0 0 1 1.577 1.577c.372.671.559 1.464.559 2.378 0 .906-.187 1.699-.559 2.378a3.978 3.978 0 0 1-1.577 1.59c-.679.372-1.476.558-2.39.558h-2.961Zm1.189-1.092h1.784c.671 0 1.25-.142 1.735-.425.493-.283.874-.68 1.14-1.189.267-.518.401-1.124.401-1.82 0-.704-.138-1.31-.413-1.82a2.81 2.81 0 0 0-1.14-1.177c-.486-.283-1.06-.425-1.723-.425h-1.784v6.856ZM223.608 18V8.96h5.884v1.092h-4.695v2.864h4.453v1.092h-4.453v2.9h4.695V18h-5.884Zm9.748 0-3.264-9.04h1.274l2.767 7.948h-.255l2.767-7.948h1.274L234.667 18h-1.311Zm5.703 0V8.96h5.885v1.092h-4.696v2.864h4.453v1.092h-4.453v2.9h4.696V18h-5.885Zm7.359 0V8.96h1.189v7.948h3.967V18h-5.156Zm10.576.146a4.73 4.73 0 0 1-1.796-.34 4.539 4.539 0 0 1-1.468-.983 4.61 4.61 0 0 1-.971-1.48 4.886 4.886 0 0 1-.352-1.869c0-.68.117-1.302.352-1.869.235-.566.558-1.06.971-1.48.42-.42.906-.744 1.456-.97a4.759 4.759 0 0 1 1.808-.34c.647 0 1.245.117 1.795.352.559.226 1.044.55 1.456.97.421.413.749.902.983 1.468a4.69 4.69 0 0 1 .364 1.87c0 .67-.121 1.293-.364 1.868a4.497 4.497 0 0 1-.983 1.48c-.412.42-.897.748-1.456.983-.55.226-1.148.34-1.795.34Zm0-1.105c.501 0 .958-.088 1.371-.267.412-.186.768-.44 1.067-.764.308-.332.542-.712.704-1.14.17-.437.255-.902.255-1.396 0-.493-.085-.954-.255-1.383a3.317 3.317 0 0 0-.704-1.128 3.047 3.047 0 0 0-1.067-.765 3.3 3.3 0 0 0-1.371-.279c-.494 0-.947.093-1.359.279a3.161 3.161 0 0 0-1.08.764c-.3.324-.534.7-.704 1.129-.17.429-.255.89-.255 1.383 0 .494.085.959.255 1.396.17.428.404.808.704 1.14.307.324.667.578 1.08.764a3.39 3.39 0 0 0 1.359.267Zm6.333.959V8.96h3.191c.598 0 1.124.114 1.577.34.453.227.805.55 1.056.97.259.421.388.915.388 1.481 0 .566-.129 1.06-.388 1.48a2.612 2.612 0 0 1-1.056.971c-.445.227-.971.34-1.577.34h-2.002V18h-1.189Zm1.189-4.55h2.038c.364 0 .68-.069.947-.206.266-.138.473-.336.618-.595.146-.259.219-.558.219-.898 0-.348-.073-.647-.219-.898a1.463 1.463 0 0 0-.618-.594 2.044 2.044 0 0 0-.947-.207h-2.038v3.398Zm6.631 4.55V8.96h1.092l3.385 4.817h-.558l3.361-4.817h1.092V18h-1.201v-7.535l.425.133-3.361 4.733h-.097l-3.325-4.732.376-.134V18h-1.189Zm10.38 0V8.96h5.885v1.092h-4.696v2.864h4.453v1.092h-4.453v2.9h4.696V18h-5.885Zm7.358 0V8.96h.995l5.194 7.305-.449.048V8.96h1.201V18h-.995l-5.169-7.353.413-.049V18h-1.19Zm10.536 0v-7.948h-2.451V8.96h6.067v1.092h-2.415V18h-1.201Z"/><defs><clipPath id="a"><path fill="#fff" d="M0 8.26h46.715v25.48H0z"/></clipPath></defs></svg>
